icons/4_Outdated/Plex v1.svg

<svg width="1024" height="1024" fill="none" xmlns="http://www.w3.org/2000/svg"><g clip-path="url(#a)"><path d="M512 1024c282.77 0 512-229.23 512-512S794.77 0 512 0 0 229.23 0 512s229.23 512 512 512Z" fill="#56595B"/><path d="m746.2 516.4 51.1 88.1h-53.6l-25.6-44.2 28.1-43.9Zm51.1-96.9h-53.6l-25.6 44.2 28.1 44 51.1-88.2Zm-112.7 0H631l59.2 92.5-59.2 92.5h53.6l59.2-92.5-59.2-92.5Zm-178.9 185h106.7v-32.4H545v-47.7h62.7v-32.1H545v-40.6h67.4v-32.1H505.7v184.9Zm-93.5-185H373v184.9h114.2V572h-75V419.5Zm-57.8 57.7c0 19.9-6.2 35.1-18.7 45.7-12.4 10.5-30.1 15.8-53.1 15.8h-16.8v65.8h-39.2v-185h59.1c22.4 0 39.5 4.8 51.2 14.5 11.7 9.7 17.5 24.1 17.5 43.2Zm-39.6 1.4c0-9.2-2.5-16-7.5-20.4-5-4.4-12.9-6.6-23.6-6.6h-17.8v54.9h12.9c12.1 0 21.1-2.4 27.1-7.1 6-4.7 8.9-11.7 8.9-20.8Z" fill="#fff"/></g><defs><clipPath id="a"><path fill="#fff" d="M0 0h1024v1024H0z"/></clipPath></defs></svg>

<svg width="1024" height="1024" viewBox="0 0 1024 1024" fill="none" xmlns="http://www.w3.org/2000/svg">
<g clip-path="url(#clip0_3_644)">
<path d="M512 1024C794.77 1024 1024 794.77 1024 512C1024 229.23 794.77 0 512 0C229.23 0 0 229.23 0 512C0 794.77 229.23 1024 512 1024Z" fill="#56595B"/>
<path d="M746.2 516.4L797.3 604.5H743.7L718.1 560.3L746.2 516.4ZM797.3 419.5H743.7L718.1 463.7L746.2 507.7L797.3 419.5ZM684.6 419.5H631L690.2 512L631 604.5H684.6L743.8 512L684.6 419.5ZM505.7 604.5H612.4V572.1H545V524.4H607.7V492.3H545V451.7H612.4V419.6H505.7V604.5ZM412.2 419.5H373V604.4H487.2V572H412.2V419.5ZM354.4 477.2C354.4 497.1 348.2 512.3 335.7 522.9C323.3 533.4 305.6 538.7 282.6 538.7H265.8V604.5H226.6V419.5H285.7C308.1 419.5 325.2 424.3 336.9 434C348.6 443.7 354.4 458.1 354.4 477.2ZM314.8 478.6C314.8 469.4 312.3 462.6 307.3 458.2C302.3 453.8 294.4 451.6 283.7 451.6H265.9V506.5H278.8C290.9 506.5 299.9 504.1 305.9 499.4C311.9 494.7 314.8 487.7 314.8 478.6Z" fill="white"/>
</g>
<defs>
<clipPath id="clip0_3_644">
<rect width="1024" height="1024" fill="white"/>
</clipPath>
</defs>
</svg>
